X:417
T:Blackheath. (p).1701.PLFD1.417
M:4/4
L:1/4
Q:1/2=90
S:Playford, Dancing Master,11th Ed.,1701.
O:England;London
Z:Chris Partington.
K:Bb
G|Bddg|d/c/d/e/dG|Bddg|a/g/a/b/ad|gabf|
g/f/e/d/cf|dBcA|B3G|Bddg|d/c/d/e/dG|Bddg|
a/g/a/b/ad|gabf|g/f/e/d/cf|dBcA|B4:|
|:dAAd/c/|=B/c/B/A/Gd|gddg/f/|=e/f/e/d/ce|f2g2|
a/g/a/b/ag/f/|=effe|f3f|bdde/f/|g/f/e/d/cd/e/|
fBBc/d/|e/d/c/B/AB/c/|d2=e2|^fdga/b/|aga^f|g4|]
